X:167
T:Old Humphry Hodge- Woodrich
%%VWML:SBG-1-2-801-0
F:http://www.vwml.org/record/SBG/1/2/801
Z:Original Sibelius transcriptions by M. & S. Graebe
M:6/8
I:linebreak $
K:G
V:1 treble nm="P1"
V:1
 D | G2 G G2 G | B2 A G2 G | c2 c FE F | (G3 G2) D | G2 G/ G/ G2 G | B2 A/B/ G2 G |$ c2 c FE F | %8
 B4 z c | c2 B d2 d | e d c B2 B | d2 d A2 A | (B3 B2) d |$ e d B d2 d/ d/ | e d B d2 d | %15
 G G G AG F | (G3 G2) z | D2 G G2 F | (G3 G2) z |$ D2 F A2 B | (A3 A2) D | B A B G2 D/ D/ | %22
 .c B c A2 c | B2 G A G F | (G3 G2) x | %25

